wp-content/plugins/digits/assets/images/Digits_logo.svg

<svg width="120" height="33" viewBox="0 0 120 33" fill="none" xmlns="http://www.w3.org/2000/svg">
    <path d="M37.5503 17.3228C37.5503 11.8285 40.3149 8.39895 44.6544 8.39895C47.1741 8.39895 49.0988 9.72879 49.9387 11.6535H50.0437V2.65967H54.7681V26.0017H50.1137V23.0271H50.0437C49.2038 24.9519 47.2091 26.2817 44.6544 26.2817C40.2799 26.2817 37.5503 22.8521 37.5503 17.3228ZM42.3797 17.3578C42.3797 20.5424 43.8495 22.5022 46.2292 22.5022C48.5739 22.5022 50.0787 20.5424 50.0787 17.3578C50.0787 14.2082 48.5739 12.2135 46.2292 12.2135C43.8495 12.1785 42.3797 14.1732 42.3797 17.3578Z"
          fill="#232335"/>
    <path d="M57.8477 4.30467C57.8477 2.93984 58.9325 1.85498 60.3673 1.85498C61.8022 1.85498 62.887 2.93984 62.887 4.30467C62.887 5.6695 61.8022 6.75437 60.3673 6.75437C58.9325 6.75437 57.8477 5.6695 57.8477 4.30467ZM57.9876 8.67913H62.712V26.0369H57.9876V8.67913Z"
          fill="#232335"/>
    <path d="M65.7569 27.2617H70.3763C70.7612 28.4516 72.0911 29.2915 73.9108 29.2915C76.3605 29.2915 77.7254 27.9266 77.7254 25.9319V22.8873H77.6204C76.8155 24.742 74.7857 26.0019 72.266 26.0019C68.0316 26.0019 65.2319 22.7473 65.2319 17.323C65.2319 11.8287 67.9616 8.43408 72.336 8.43408C74.8207 8.43408 76.7805 9.72892 77.6904 11.7237H77.7604V8.71404H82.4148V25.8269C82.4148 29.9564 78.9502 32.616 73.7709 32.616C69.2214 32.5461 66.1418 30.3413 65.7569 27.2617ZM77.7254 17.323C77.7254 14.2084 76.2206 12.1786 73.8758 12.1786C71.5311 12.1786 70.0613 14.1384 70.0613 17.323C70.0613 20.5076 71.5311 22.3273 73.8758 22.3273C76.2206 22.3273 77.7254 20.4376 77.7254 17.323Z"
          fill="#232335"/>
    <path d="M85.4243 4.30467C85.4243 2.93984 86.5092 1.85498 87.944 1.85498C89.3788 1.85498 90.4637 2.93984 90.4637 4.30467C90.4637 5.6695 89.3788 6.75437 87.944 6.75437C86.5442 6.75437 85.4243 5.6695 85.4243 4.30467ZM85.5993 8.67913H90.3237V26.0369H85.5993V8.67913Z"
          fill="#232335"/>
    <path d="M99.4574 4.68945V8.67896H102.677V12.2485H99.4574V20.5425C99.4574 21.8723 100.087 22.5022 101.487 22.5022C101.907 22.5022 102.362 22.4672 102.642 22.4322V25.8968C102.152 26.0018 101.347 26.1068 100.402 26.1068C96.3078 26.1068 94.733 24.7419 94.733 21.3824V12.2835H92.2833V8.71395H94.733V4.72445H99.4574V4.68945Z"
          fill="#232335"/>
    <path d="M112.266 8.29395C116.605 8.29395 119.44 10.4987 119.51 13.8582H115.171C115.066 12.4584 113.946 11.6185 112.196 11.6185C110.551 11.6185 109.501 12.3534 109.501 13.4733C109.501 14.3482 110.236 14.9081 111.776 15.2581L115.101 15.958C118.565 16.7279 120 18.0927 120 20.6824C120 24.112 116.85 26.3517 112.266 26.3517C107.646 26.3517 104.777 24.112 104.532 20.7524H109.151C109.361 22.2222 110.516 23.0621 112.406 23.0621C114.191 23.0621 115.276 22.3622 115.276 21.2073C115.276 20.3324 114.681 19.8425 113.141 19.4925L109.921 18.7926C106.632 18.0577 104.952 16.3429 104.952 13.7883C104.952 10.4637 107.821 8.29395 112.266 8.29395Z"
          fill="#232335"/>
    <path d="M0 13.9634L2.09974 7.48919C6.92913 9.20397 10.4287 10.6738 12.6334 11.8986C12.0735 6.40433 11.7585 2.6248 11.7235 0.560059H18.3377C18.2327 3.56968 17.8828 7.31421 17.2878 11.8636C20.4025 10.2888 24.007 8.81902 28.0315 7.48919L30.1312 13.9634C26.2817 15.2232 22.5022 16.0981 18.7927 16.5181C20.6474 18.1279 23.2721 20.9975 26.6317 25.127L21.1723 29.0115C19.4226 26.5968 17.3228 23.3422 14.9431 19.2127C12.7034 23.4822 10.7087 26.7718 9.02888 29.0115L3.63955 25.127C7.17411 20.7875 9.69379 17.9179 11.1986 16.5181C7.24409 15.7832 3.53456 14.9083 0 13.9634Z"
          fill="#FFC700"/>
    <path d="M24.1819 29.6063L23.8669 29.1863C22.2222 26.9466 20.2624 23.902 18.0577 20.1575C15.9929 24.042 14.1382 27.0866 12.5284 29.1863L12.2134 29.6063L5.98418 25.1269L6.33414 24.7069C9.34376 20.9974 11.6535 18.3377 13.2283 16.7629C9.65873 16.063 6.22915 15.2581 3.00955 14.3832L2.48462 14.2432L4.89931 6.75416L5.42425 6.92914C9.65872 8.43395 12.9133 9.76378 15.153 10.9186C14.6281 5.94926 14.3831 2.44969 14.3481 0.524934V0H22.0122V0.524934C21.9422 3.32458 21.6272 6.78915 21.1023 10.8836C24.0419 9.44882 27.3665 8.11899 31.041 6.92914L31.531 6.75416L33.9457 14.2082L33.4557 14.3832C29.9912 15.5381 26.5266 16.343 23.132 16.7979C24.9168 18.5127 27.2965 21.1374 30.1662 24.7069L30.5161 25.1269L24.1819 29.6063ZM18.0227 18.0227L18.5126 18.8277C20.7523 22.6772 22.7471 25.8268 24.4269 28.1365L29.0113 24.8819C25.8617 21.0324 23.342 18.3027 21.5922 16.7629L20.6823 15.993L21.8722 15.853C25.3718 15.4681 28.9763 14.6632 32.6158 13.4733L30.8311 8.01399C27.0515 9.30883 23.622 10.7087 20.6473 12.1785L19.7725 12.6334L19.9124 11.6535C20.4724 7.41908 20.8223 3.84952 20.9273 0.944886H15.398C15.468 3.07962 15.783 6.68416 16.3079 11.6885L16.4129 12.7034L15.538 12.2135C13.4732 11.0236 10.1137 9.62379 5.59923 8.01399L3.84945 13.4383C7.17403 14.3132 10.7436 15.1181 14.4181 15.853L15.433 16.063L14.6631 16.7629C13.2283 18.0927 10.8136 20.8224 7.52399 24.8819L12.0384 28.1365C13.6482 25.9318 15.503 22.8172 17.6027 18.8277L18.0227 18.0227Z"
          fill="#7E39FF"/>
</svg>

<?xml version="1.0" encoding="utf-8"?>
<!-- Generator: Adobe Illustrator 27.0.0, SVG Export Plug-In . SVG Version: 6.00 Build 0)  -->
<svg version="1.1" id="Layer_1" xmlns="http://www.w3.org/2000/svg" xmlns:xlink="http://www.w3.org/1999/xlink" x="0px" y="0px"
	 viewBox="0 0 120 33" style="enable-background:new 0 0 120 33;" xml:space="preserve">
<style type="text/css">
	.st0{fill:#FFFFFF;}
	.st1{fill:#7E39FF;}
</style>
<path class="st0" d="M37.6,17.3c0-5.5,2.8-8.9,7.1-8.9c2.5,0,4.4,1.3,5.3,3.3H50v-9h4.7V26h-4.7v-3H50c-0.8,1.9-2.8,3.3-5.4,3.3
	C40.3,26.3,37.6,22.9,37.6,17.3z M42.4,17.4c0,3.2,1.5,5.1,3.8,5.1c2.3,0,3.8-2,3.8-5.1c0-3.1-1.5-5.1-3.8-5.1
	C43.8,12.2,42.4,14.2,42.4,17.4z"/>
<path class="st0" d="M57.8,4.3c0-1.4,1.1-2.4,2.5-2.4c1.4,0,2.5,1.1,2.5,2.4s-1.1,2.4-2.5,2.4C58.9,6.8,57.8,5.7,57.8,4.3z M58,8.7
	h4.7V26H58V8.7z"/>
<path class="st0" d="M65.8,27.3h4.6c0.4,1.2,1.7,2,3.5,2c2.4,0,3.8-1.4,3.8-3.4v-3h-0.1c-0.8,1.9-2.8,3.1-5.4,3.1
	c-4.2,0-7-3.3-7-8.7c0-5.5,2.7-8.9,7.1-8.9c2.5,0,4.4,1.3,5.4,3.3h0.1v-3h4.7v17.1c0,4.1-3.5,6.8-8.6,6.8
	C69.2,32.5,66.1,30.3,65.8,27.3z M77.7,17.3c0-3.1-1.5-5.1-3.8-5.1c-2.3,0-3.8,2-3.8,5.1s1.5,5,3.8,5C76.2,22.3,77.7,20.4,77.7,17.3
	z"/>
<path class="st0" d="M85.4,4.3c0-1.4,1.1-2.4,2.5-2.4s2.5,1.1,2.5,2.4s-1.1,2.4-2.5,2.4C86.5,6.8,85.4,5.7,85.4,4.3z M85.6,8.7h4.7
	V26h-4.7V8.7z"/>
<path class="st0" d="M99.5,4.7v4h3.2v3.6h-3.2v8.3c0,1.3,0.6,2,2,2c0.4,0,0.9,0,1.2-0.1v3.5c-0.5,0.1-1.3,0.2-2.2,0.2
	c-4.1,0-5.7-1.4-5.7-4.7v-9.1h-2.4V8.7h2.4v-4L99.5,4.7L99.5,4.7z"/>
<path class="st0" d="M112.3,8.3c4.3,0,7.2,2.2,7.2,5.6h-4.3c-0.1-1.4-1.2-2.2-3-2.2c-1.6,0-2.7,0.7-2.7,1.9c0,0.9,0.7,1.4,2.3,1.8
	l3.3,0.7c3.5,0.8,4.9,2.1,4.9,4.7c0,3.4-3.2,5.7-7.7,5.7c-4.6,0-7.5-2.2-7.7-5.6h4.6c0.2,1.5,1.4,2.3,3.3,2.3c1.8,0,2.9-0.7,2.9-1.9
	c0-0.9-0.6-1.4-2.1-1.7l-3.2-0.7c-3.3-0.7-5-2.4-5-5C105,10.5,107.8,8.3,112.3,8.3z"/>
<path class="st0" d="M0,14l2.1-6.5c4.8,1.7,8.3,3.2,10.5,4.4c-0.6-5.5-0.9-9.3-0.9-11.3h6.6c-0.1,3-0.5,6.8-1,11.3
	c3.1-1.6,6.7-3,10.7-4.4l2.1,6.5c-3.8,1.3-7.6,2.1-11.3,2.6c1.9,1.6,4.5,4.5,7.8,8.6L21.2,29c-1.7-2.4-3.8-5.7-6.2-9.8
	c-2.2,4.3-4.2,7.6-5.9,9.8l-5.4-3.9c3.5-4.3,6.1-7.2,7.6-8.6C7.2,15.8,3.5,14.9,0,14z"/>
<path class="st1" d="M24.2,29.6l-0.3-0.4c-1.6-2.2-3.6-5.3-5.8-9c-2.1,3.9-3.9,6.9-5.5,9l-0.3,0.4L6,25.1l0.3-0.4
	c3-3.7,5.3-6.4,6.9-7.9c-3.6-0.7-7-1.5-10.2-2.4l-0.5-0.1l2.4-7.5l0.5,0.2c4.2,1.5,7.5,2.8,9.7,4c-0.5-5-0.8-8.5-0.8-10.4V0H22v0.5
	c-0.1,2.8-0.4,6.3-0.9,10.4c2.9-1.4,6.3-2.8,9.9-4l0.5-0.2l2.4,7.5l-0.5,0.2c-3.5,1.2-6.9,2-10.3,2.4c1.8,1.7,4.2,4.3,7,7.9l0.3,0.4
	L24.2,29.6z M18,18l0.5,0.8c2.2,3.8,4.2,7,5.9,9.3l4.6-3.3c-3.1-3.8-5.7-6.6-7.4-8.1L20.7,16l1.2-0.1c3.5-0.4,7.1-1.2,10.7-2.4
	L30.8,8c-3.8,1.3-7.2,2.7-10.2,4.2l-0.9,0.5l0.1-1c0.6-4.2,0.9-7.8,1-10.7h-5.5c0.1,2.1,0.4,5.7,0.9,10.7l0.1,1l-0.9-0.5
	C13.5,11,10.1,9.6,5.6,8l-1.7,5.4c3.3,0.9,6.9,1.7,10.6,2.4l1,0.2l-0.8,0.7c-1.4,1.3-3.8,4.1-7.1,8.1l4.5,3.3
	c1.6-2.2,3.5-5.3,5.6-9.3L18,18z"/>
</svg>
